lib/brands/icons/quora.svg

<svg xmlns="http://www.w3.org/2000/svg" fill="none" aria-hidden="true" viewBox="0 0 48 48"><g id="quora-Icon"><path id="quora" fill="#B72D2C" fill-rule="evenodd" d="M26.8749 34.5391C25.8014 34.8394 24.6694 35 23.5 35C16.5964 35 11 29.4036 11 22.5C11 15.5964 16.5964 10 23.5 10C30.4036 10 36 15.5964 36 22.5C36 26.4441 34.1733 29.9615 31.3199 32.2525C32.1059 33.2448 33.0179 34.0132 34.0149 34.0132C35.6591 34.0132 36.1539 32.6898 36.1957 32.0281H38C38 35.5309 35.9054 37.8792 32.462 37.9909C31.2483 38.0303 29.2146 38.0962 26.8749 34.5391ZM25.7747 32.6258C25.1152 32.8697 24.3609 33 23.5 33C18.329 33 17 28.299 17 22.5C17 16.701 18.3302 12 23.5 12C28.6698 12 30 16.701 30 22.5C30 24.8536 29.7811 27.0263 29.1752 28.7773C28.1957 27.0543 26.6501 25 23.801 25C21.4287 25 19.6119 25.9712 19 26.4568L19.7531 27.9617C19.9623 27.8923 20.4905 27.7536 20.9298 27.7536C21.4789 27.7536 23.4244 27.5775 25.3072 31.6599C25.4639 31.9996 25.6198 32.3212 25.7747 32.6258Z" clip-rule="evenodd"/></g></svg>

<svg xmlns="http://www.w3.org/2000/svg" fill="none" aria-hidden="true" viewBox="0 0 48 48"><path fill="#B72D2C" fill-rule="evenodd" d="M26.875 34.54c-1.074.3-2.206.46-3.375.46C16.596 35 11 29.404 11 22.5S16.596 10 23.5 10 36 15.596 36 22.5c0 3.944-1.827 7.462-4.68 9.752.786.993 1.698 1.761 2.695 1.761 1.644 0 2.139-1.323 2.18-1.985H38c0 3.503-2.095 5.851-5.538 5.963-1.214.04-3.247.105-5.587-3.452Zm-1.1-1.914c-.66.244-1.414.374-2.275.374-5.171 0-6.5-4.701-6.5-10.5S18.33 12 23.5 12 30 16.701 30 22.5c0 2.354-.219 4.526-.825 6.277C28.195 27.054 26.65 25 23.801 25c-2.372 0-4.19.971-4.801 1.457l.753 1.505c.21-.07.738-.208 1.177-.208.549 0 2.494-.177 4.377 3.906.157.34.313.661.468.966Z" clip-rule="evenodd"/></svg>
